src/assets/compendia/icons/tokens-core/faction-denobulan-rank-8-token.svg

<svg xmlns="http://www.w3.org/2000/svg" xml:space="preserve" style="fill-rule:evenodd;clip-rule:evenodd;stroke-linecap:round;stroke-miterlimit:1.5" viewBox="0 0 256 256"><path d="M0 0h256v256H0z" style="fill:none"/><g><circle cx="128" cy="128" r="128"/><path d="M128 0c70.645 0 128 57.355 128 128s-57.355 128-128 128S0 198.645 0 128 57.355 0 128 0m0 8C61.77 8 8 61.77 8 128s53.77 120 120 120 120-53.77 120-120S194.23 8 128 8" style="fill:#f53d4d"/><path d="M806.119 382.886c4.225-4.304 9.622-6.886 15.5-6.886 13.522 0 24.5 13.667 24.5 30.5s-10.978 30.5-24.5 30.5c-5.878 0-11.275-2.582-15.5-6.886-4.225 4.304-9.622 6.886-15.5 6.886-13.522 0-24.5-13.667-24.5-30.5s10.978-30.5 24.5-30.5c5.878 0 11.275 2.582 15.5 6.886m14.246 51.112.254.002c9.931 0 18.222-9.493 20.117-22.075a2.998 2.998 0 0 0-2.97-3.425H813.23A7.51 7.51 0 0 1 806 414a7.51 7.51 0 0 1-7.23-5.5s-16.974 0-24.298.016a2.984 2.984 0 0 0-2.954 3.407c1.879 12.584 10.17 22.077 20.101 22.077l.138-.001a10 10 0 0 1-5.638-8.999c0-5.519 4.481-10 10-10 5.149 0 9.394 3.9 9.941 8.904.546-5.004 4.791-8.904 9.94-8.904 5.519 0 10 4.481 10 10 0 3.954-2.3 7.376-5.635 8.998m-3.279-3.244a1.493 1.493 0 0 1-1.705-1.478l.023-.001c0-.668.451-1.25 1.097-1.416a4.5 4.5 0 0 0 3.38-4.359 4.503 4.503 0 0 0-4.471-4.5h-.029c-3.312 0-6 2.689-6 6a6.003 6.003 0 0 0 7.705 5.754m-22.053 0a1.492 1.492 0 0 0 1.705-1.478l-.022-.001c0-.668-.452-1.25-1.098-1.416a4.5 4.5 0 0 1-3.38-4.359 4.503 4.503 0 0 1 4.471-4.5h.029c3.312 0 6 2.689 6 6a6.003 6.003 0 0 1-7.705 5.754M806 402.5c2.208 0 4 1.792 4 4s-1.792 4-4 4-4-1.792-4-4 1.792-4 4-4m-14.243-23.499-.138-.001c-9.931 0-18.222 9.493-20.117 22.075a2.998 2.998 0 0 0 2.97 3.425h24.298A7.51 7.51 0 0 1 806 399a7.51 7.51 0 0 1 7.23 5.5s17.165 0 24.536-.016a2.987 2.987 0 0 0 2.954-3.407C838.841 388.493 830.55 379 820.619 379l-.254.002A10 10 0 0 1 826 388c0 5.519-4.481 10-10 10-5.149 0-9.394-3.9-9.94-8.904-.547 5.004-4.792 8.904-9.941 8.904-5.519 0-10-4.481-10-10 0-3.956 2.302-7.378 5.638-8.999m25.329 3.245a1.493 1.493 0 0 0-1.705 1.478l.023.001c0 .668.451 1.25 1.097 1.416a4.5 4.5 0 0 1 3.38 4.359 4.503 4.503 0 0 1-4.471 4.5h-.029c-3.312 0-6-2.689-6-6a6.003 6.003 0 0 1 7.705-5.754m-22.053 0a1.492 1.492 0 0 1 1.705 1.478l-.022.001c0 .668-.452 1.25-1.098 1.416a4.5 4.5 0 0 0-3.38 4.359 4.503 4.503 0 0 0 4.471 4.5h.029c3.312 0 6-2.689 6-6a6.003 6.003 0 0 0-7.705-5.754" style="fill:#f53d4d" transform="translate(-1585 -735.813)scale(2.125)"/><path d="M1916.84 1455.5c3.71.33 7.44.5 11.16.5s7.45-.17 11.16-.5l-1.68-19.73c-3.15.29-6.32.43-9.48.43s-6.33-.14-9.48-.43z" style="fill:none;stroke:#f53d4d;stroke-width:8.66px" transform="matrix(.9375 0 0 .9091 -1679.5 -1075.64)"/><path d="M1894.87 1451.5a124.2 124.2 0 0 0 66.26 0l-4.97-19.12c-9.18 2.53-18.65 3.82-28.16 3.82s-18.97-1.29-28.16-3.82z" style="fill:none;stroke:#f53d4d;stroke-width:8.66px" transform="matrix(.9375 0 0 .9091 -1679.5 -1075.64)"/><path d="M1873.9 1443.63c16.95 8.15 35.41 12.37 54.1 12.37s37.15-4.22 54.1-12.37l-8.12-17.94c-14.4 6.92-30.09 10.51-45.98 10.51s-31.58-3.59-45.98-10.51z" style="fill:none;stroke:#f53d4d;stroke-width:8.66px" transform="matrix(.9375 0 0 .9091 -1679.5 -1075.64)"/></g></svg>

<?xml version="1.0" encoding="UTF-8" standalone="no"?>
<!DOCTYPE svg PUBLIC "-//W3C//DTD SVG 1.1//EN" "http://www.w3.org/Graphics/SVG/1.1/DTD/svg11.dtd">
<svg width="100%" height="100%" viewBox="0 0 256 256" version="1.1" xmlns="http://www.w3.org/2000/svg" xmlns:xlink="http://www.w3.org/1999/xlink" xml:space="preserve" xmlns:serif="http://www.serif.com/" style="fill-rule:evenodd;clip-rule:evenodd;stroke-linecap:round;stroke-miterlimit:1.5;">
    <g transform="matrix(1,0,0,1,-5100,-3300)">
        <g transform="matrix(1,0,0,1,5100,3300)">
            <rect id="faction-denobulan-rank-8-token" x="0" y="0" width="256" height="256" style="fill:none;"/>
            <g id="faction-denobulan-rank-8-token1" serif:id="faction-denobulan-rank-8-token">
                <circle cx="128" cy="128" r="128"/>
                <path d="M128,0C198.645,0 256,57.355 256,128C256,198.645 198.645,256 128,256C57.355,256 0,198.645 0,128C0,57.355 57.355,0 128,0ZM128,8C61.77,8 8,61.77 8,128C8,194.23 61.77,248 128,248C194.23,248 248,194.23 248,128C248,61.77 194.23,8 128,8Z" style="fill:rgb(245,61,77);"/>
                <g transform="matrix(2.125,0,0,2.125,-1585,-735.813)">
                    <g id="Denobulan">
                        <path id="Denobulan1" serif:id="Denobulan" d="M806.119,382.886C810.344,378.582 815.741,376 821.619,376C835.141,376 846.119,389.667 846.119,406.5C846.119,423.333 835.141,437 821.619,437C815.741,437 810.344,434.418 806.119,430.114C801.894,434.418 796.497,437 790.619,437C777.097,437 766.119,423.333 766.119,406.5C766.119,389.667 777.097,376 790.619,376C796.497,376 801.894,378.582 806.119,382.886ZM820.365,433.998C820.449,433.999 820.534,434 820.619,434C830.55,434 838.841,424.507 840.736,411.925C840.86,411.064 840.603,410.192 840.033,409.535C839.463,408.877 838.636,408.5 837.766,408.5L813.23,408.5C812.354,411.67 809.447,414 806,414C802.553,414 799.646,411.67 798.77,408.5C798.77,408.5 781.796,408.5 774.472,408.516C773.607,408.516 772.784,408.892 772.218,409.545C771.651,410.199 771.396,411.067 771.518,411.923C773.397,424.507 781.688,434 791.619,434C791.665,434 791.711,434 791.757,433.999C788.421,432.378 786.119,428.956 786.119,425C786.119,419.481 790.6,415 796.119,415C801.268,415 805.513,418.9 806.06,423.904C806.606,418.9 810.851,415 816,415C821.519,415 826,419.481 826,425C826,428.954 823.7,432.376 820.365,433.998ZM817.086,430.754C816.715,430.808 816.332,430.719 816.018,430.5C815.618,430.22 815.381,429.764 815.381,429.276C815.381,429.276 815.381,429.275 815.404,429.275C815.404,428.607 815.855,428.025 816.501,427.859C818.444,427.361 819.881,425.597 819.881,423.5C819.881,421.026 817.88,419.016 815.41,419L815.381,419C812.069,419 809.381,421.689 809.381,425C809.381,428.311 812.069,431 815.381,431C815.973,431 816.546,430.914 817.086,430.754ZM795.033,430.754C795.405,430.808 795.787,430.719 796.101,430.5C796.501,430.22 796.738,429.764 796.738,429.276C796.738,429.276 796.738,429.275 796.716,429.275C796.716,428.607 796.264,428.025 795.618,427.859C793.675,427.361 792.238,425.597 792.238,423.5C792.238,421.026 794.239,419.016 796.709,419L796.738,419C800.05,419 802.738,421.689 802.738,425C802.738,428.311 800.05,431 796.738,431C796.146,431 795.573,430.914 795.033,430.754ZM806,402.5C808.208,402.5 810,404.292 810,406.5C810,408.708 808.208,410.5 806,410.5C803.792,410.5 802,408.708 802,406.5C802,404.292 803.792,402.5 806,402.5ZM791.757,379.001C791.711,379 791.665,379 791.619,379C781.688,379 773.397,388.493 771.502,401.075C771.378,401.936 771.635,402.808 772.205,403.465C772.775,404.123 773.602,404.5 774.472,404.5L798.77,404.5C799.646,401.33 802.553,399 806,399C809.447,399 812.354,401.33 813.23,404.5C813.23,404.5 830.395,404.5 837.766,404.484C838.631,404.484 839.454,404.108 840.021,403.455C840.587,402.801 840.843,401.933 840.72,401.077C838.841,388.493 830.55,379 820.619,379C820.534,379 820.449,379.001 820.365,379.002C823.7,380.624 826,384.046 826,388C826,393.519 821.519,398 816,398C810.851,398 806.606,394.1 806.06,389.096C805.513,394.1 801.268,398 796.119,398C790.6,398 786.119,393.519 786.119,388C786.119,384.044 788.421,380.622 791.757,379.001ZM817.086,382.246C816.715,382.192 816.332,382.281 816.018,382.5C815.618,382.78 815.381,383.236 815.381,383.724C815.381,383.724 815.381,383.725 815.404,383.725C815.404,384.393 815.855,384.975 816.501,385.141C818.444,385.639 819.881,387.403 819.881,389.5C819.881,391.974 817.88,393.984 815.41,394L815.381,394C812.069,394 809.381,391.311 809.381,388C809.381,384.689 812.069,382 815.381,382C815.973,382 816.546,382.086 817.086,382.246ZM795.033,382.246C795.405,382.192 795.787,382.281 796.101,382.5C796.501,382.78 796.738,383.236 796.738,383.724C796.738,383.724 796.738,383.725 796.716,383.725C796.716,384.393 796.264,384.975 795.618,385.141C793.675,385.639 792.238,387.403 792.238,389.5C792.238,391.974 794.239,393.984 796.709,394L796.738,394C800.05,394 802.738,391.311 802.738,388C802.738,384.689 800.05,382 796.738,382C796.146,382 795.573,382.086 795.033,382.246Z" style="fill:rgb(245,61,77);"/>
                    </g>
                </g>
                <g transform="matrix(0.9375,0,0,0.909091,-1679.5,-1075.64)">
                    <path d="M1916.84,1455.5C1920.55,1455.83 1924.28,1456 1928,1456C1931.72,1456 1935.45,1455.83 1939.16,1455.5L1937.48,1435.77C1934.33,1436.06 1931.16,1436.2 1928,1436.2C1924.84,1436.2 1921.67,1436.06 1918.52,1435.77L1916.84,1455.5Z" style="fill:none;stroke:rgb(245,61,77);stroke-width:8.66px;"/>
                </g>
                <g transform="matrix(0.9375,0,0,0.909091,-1679.5,-1075.64)">
                    <path d="M1894.87,1451.5C1905.68,1454.49 1916.81,1456 1928,1456C1939.19,1456 1950.32,1454.49 1961.13,1451.5L1956.16,1432.38C1946.98,1434.91 1937.51,1436.2 1928,1436.2C1918.49,1436.2 1909.03,1434.91 1899.84,1432.38L1894.87,1451.5Z" style="fill:none;stroke:rgb(245,61,77);stroke-width:8.66px;"/>
                </g>
                <g transform="matrix(0.9375,0,0,0.909091,-1679.5,-1075.64)">
                    <path d="M1873.9,1443.63C1890.85,1451.78 1909.31,1456 1928,1456C1946.69,1456 1965.15,1451.78 1982.1,1443.63L1973.98,1425.69C1959.58,1432.61 1943.89,1436.2 1928,1436.2C1912.11,1436.2 1896.42,1432.61 1882.02,1425.69L1873.9,1443.63Z" style="fill:none;stroke:rgb(245,61,77);stroke-width:8.66px;"/>
                </g>
            </g>
        </g>
    </g>
</svg>
